X:399
T:78th Highlander's Farewell To Fort George 
C:Joe Buchanan's Scottish Tome - Page 355.1
I:355 1
R:March
Z:Carl Allison
L:1/16
M:2/4
K:A
e2 | "A"A2A>B c>Bc>d | "A"e2e>c "Bm"d2c>d | "A"e2e>c A>Bc>e | "G"d>cd>B "E7"=G2e2 |
"A"A2A>B c>Bc>d | "A"e2e>c "Bm"d2c>d | "A"e2>a2 "Bm"=g>fe>d | "A"c2A2 A2 :|
e>f | "A"=g>fg>a =g2f>e | "D"a2d2 "Bm"d2c>d | "A"e2e>c A>Bc>e | "G"d>cd>B "Em"=G2e>f |
"G"=g>fg>a =g2f>e | "D"a2d2 "Bm"d2c>d | "A"e2>a2 "G"=gfe>d | "A"c2A2 A2e>f |
"G"=g>fg>a =g>ed>e | "G"a2=g>f e>dc>d | "A"e2e>c A>Bc>e | "G"d>cd>B "E7"=G2e2 |
"A"A2A>B c>Bc>d | "A"e2e>c "Bm"d2c>d | "A"e2>a2 "Bm"=g2f>e | "A"c2A2 A2 |]

